X:1
T:MUS240 Woodwind Trio
C:Ali Corbin
M:3/2
L:1/2
Q:1/2=100
K:Dmin
%%MIDI program 1 73 % Flute
%%MIDI program 2 68 % Oboe
%%MIDI program 3 70 % Bassoon
V:Flute name="Flute" snm="Fl"
%%s:"<Flute"
D3|F3|z3|D3|F3|z3|D3|F3|z3|D3|F3|
z3|D3|F3|z3|D3|F3|z3|D3|F3|z3|D3-|D3|_E3-|_E3||
V:Oboe name="Oboe" snm="Ob"
z3|z3|z3|z3|z2 D|D2 (C/2D/2)|F2 (G/2F/2)|D2 A|c2 (A/2G/2)|F2 G|A2
V:Bassoon name="Bassoon" snm="Bas"

